svgs/thin/vials.svg

<svg xmlns="http://www.w3.org/2000/svg" viewBox="0 0 512 512"><!-- Font Awesome Pro 6.0.0-alpha2 by @fontawesome - https://fontawesome.com License - https://fontawesome.com/license (Commercial License) --><path d="M216 32H8C3.594 32 0 35.594 0 40S3.594 48 8 48H216C220.406 48 224 44.406 224 40S220.406 32 216 32ZM184 80C179.594 80 176 83.594 176 88V248H48V88C48 83.594 44.406 80 40 80S32 83.594 32 88V400C32 444.125 67.875 480 112 480S192 444.125 192 400V88C192 83.594 188.406 80 184 80ZM176 400C176 435.281 147.281 464 112 464S48 435.281 48 400V264H176V400ZM504 32H296C291.594 32 288 35.594 288 40S291.594 48 296 48H504C508.406 48 512 44.406 512 40S508.406 32 504 32ZM472 80C467.594 80 464 83.594 464 88V248H336V88C336 83.594 332.406 80 328 80S320 83.594 320 88V400C320 444.125 355.875 480 400 480S480 444.125 480 400V88C480 83.594 476.406 80 472 80ZM464 400C464 435.281 435.281 464 400 464S336 435.281 336 400V264H464V400Z"/></svg>

<svg xmlns="http://www.w3.org/2000/svg" viewBox="0 0 512 512"><!--! Font Awesome Pro 6.0.0-alpha3 by @fontawesome - https://fontawesome.com License - https://fontawesome.com/license (Commercial License) --><path d="M216 32h-208C3.594 32 0 35.59 0 40S3.594 48 8 48h208C220.4 48 224 44.41 224 40S220.4 32 216 32zM184 80C179.6 80 176 83.59 176 88v160h-128v-160c0-4.406-3.594-8-8-8S32 83.59 32 88v312C32 444.1 67.88 480 112 480S192 444.1 192 400V88C192 83.59 188.4 80 184 80zM176 400c0 35.28-28.72 64-64 64s-64-28.72-64-64V264h128V400zM504 32h-208C291.6 32 288 35.59 288 40s3.594 8 8 8h208C508.4 48 512 44.41 512 40S508.4 32 504 32zM472 80c-4.406 0-8 3.594-8 8v160h-128v-160c0-4.406-3.594-8-8-8S320 83.59 320 88v312c0 44.13 35.88 80 80 80s80-35.88 80-80V88C480 83.59 476.4 80 472 80zM464 400c0 35.28-28.72 64-64 64s-64-28.72-64-64V264h128V400z"/></svg>
